X: 35573
T: Ryan's Fancy Arriving
R: reel
M: 4/4
K: Dmajor
FE|:DFAd ~B2AF|DFAd ~B2AF|E2CE A,ECE|A,ECE A,ECE|
DFAd ~B2AF|DFAd ~B2AF|E2CE A,ECE|DFEC E2D2:|
|:[M:6/4]defg afge fdec|[M:4/4] dBAG FDD2|defg afge|fdec d2dc|
defg afge|fdec dBAF|G2BG FEDF|EDCE D2D2:|

